img/features/credit.svg

<?xml version="1.0" encoding="UTF-8"?>
<svg width="100px" height="100px" viewBox="0 0 100 100" version="1.1" xmlns="http://www.w3.org/2000/svg" xmlns:xlink="http://www.w3.org/1999/xlink">
    <!-- Generator: Sketch 46.2 (44496) - http://www.bohemiancoding.com/sketch -->
    <title>credit</title>
    <desc>Created with Sketch.</desc>
    <defs></defs>
    <g id="Page-1" stroke="none" stroke-width="1" fill="none" fill-rule="evenodd">
        <g id="credit" stroke="#222222" fill-rule="nonzero" stroke-width="0.95" fill="#222222">
            <g id="Group-9" transform="translate(10.000000, 17.000000)">
                <path d="M68.9370469,20 C69.4685235,20 70,19.4836455 70,18.967291 L70,11.7383283 C70,9.93108759 68.4055704,8.38202415 66.5454024,8.38202415 L60.9648987,8.38202415 L59.6362073,4.66427187 C59.529912,4.14791739 58.8389925,3.88974015 58.3075159,4.0446465 L27.7476144,13.0808499 C27.2161379,13.1841208 26.7909567,13.8553817 27.1098426,14.3717361 C27.2161379,14.7848197 27.6413191,15.1462679 28.1727957,15.1462679 C28.279091,15.1462679 28.438534,15.1462679 28.438534,15.1462679 L57.9354824,6.36824167 L60.6991604,18.3476657 C60.8054557,18.8640201 61.4963752,19.1221974 62.0278518,18.967291 C62.5593283,18.8123847 62.8250666,18.1927593 62.6656236,17.6764048 L61.4432276,10.4474421 L66.3859595,10.4474421 C67.1831743,10.4474421 67.7146508,11.0670675 67.7146508,11.7383283 L67.7146508,18.967291 C67.8740938,19.4836455 68.4055704,20 68.9370469,20 Z" id="Shape"></path>
                <path d="M76.7466667,31.5068851 C76.2133333,31.5068851 75.68,32.037425 75.68,32.5679648 C75.68,33.0985046 76.2133333,33.6290445 76.7466667,33.6290445 C77.5466667,33.6290445 77.8133333,33.8943144 77.8133333,34.6901241 L77.8133333,47.3169722 C77.8133333,48.1127819 77.5466667,48.3780518 76.7466667,48.3780518 L59.9466667,48.3780518 C59.1466667,48.3780518 58.88,48.1127819 58.88,47.3169722 L58.88,36.8122835 C58.88,36.0164737 59.1466667,35.7512038 59.9466667,35.7512038 L72.64,35.7512038 C73.1733333,35.7512038 73.7066667,35.220664 73.7066667,34.6901241 L73.7066667,22.0632761 C73.7066667,20.2063867 72.48,18.8800371 70.5066667,18.8800371 L6.24,18.8800371 C3.68,18.8800371 1.97333333,17.2884176 1.97333333,14.6357184 C1.97333333,12.0891272 3.57333333,10.3913998 6.24,10.3913998 L16.9066667,10.3913998 L10.5066667,12.5135591 C9.97333333,12.6196671 9.70666667,13.3093689 9.86666667,13.8399087 C9.97333333,14.2643406 10.4,14.4765565 10.9333333,14.4765565 C11.04,14.4765565 11.2,14.4765565 11.2,14.4765565 L49.3333333,2.00887041 C49.8666667,1.90276245 50.1333333,1.21306066 49.9733333,0.68252083 C49.8133333,0.151980997 49.1733333,-0.11328892 48.64,0.0458730299 L23.2,8.4284024 L23.0933333,8.4284024 L6.29333333,8.4284024 C2.56,8.4284024 0,10.9749936 0,14.6887724 L0,60.73963 C0,64.4534088 2.56,67 6.29333333,67 L70.56,67 C72.4266667,67 73.76,65.8328124 73.76,63.816761 L73.76,53.3120723 C73.76,52.7815325 73.2266667,52.2509926 72.6933333,52.2509926 C72.16,52.2509926 71.6266667,52.7815325 71.6266667,53.3120723 L71.6266667,63.816761 C71.6266667,64.6125707 71.36,64.8778407 70.56,64.8778407 L6.29333333,64.8778407 C3.73333333,64.8778407 2.02666667,63.2862212 2.02666667,60.633522 L2.02666667,19.5697389 C3.09333333,20.5247106 4.58666667,21.0552504 6.29333333,21.0552504 L70.56,21.0552504 C71.36,21.0552504 71.6266667,21.3205203 71.6266667,22.1163301 L71.6266667,33.6820985 L60,33.6820985 C58.1333333,33.6820985 56.8,34.8492861 56.8,36.8653375 L56.8,47.3700262 C56.8,49.2269156 58.0266667,50.5532652 60,50.5532652 L76.8,50.5532652 C78.6666667,50.5532652 80,49.3860775 80,47.3700262 L80,34.7431781 C79.9466667,32.8332347 78.7733333,31.5068851 76.7466667,31.5068851 Z" id="Shape"></path>
                <circle id="Oval" cx="68" cy="42" r="2"></circle>
                <path d="M8.07255521,62 L39.9274448,62 C40.5173502,62 41,61.55 41,61 C41,60.45 40.5173502,60 39.9274448,60 L8.07255521,60 C7.48264984,60 7,60.45 7,61 C7.05362776,61.45 7.48264984,62 8.07255521,62 Z" id="Shape"></path>
            </g>
        </g>
    </g>
</svg>

<svg width="100" height="100" viewBox="0 0 100 100" xmlns="http://www.w3.org/2000/svg"><title>credit</title><desc>Created with Sketch.</desc><g transform="translate(10 17)" stroke="#222" fill-rule="nonzero" stroke-width=".95" fill="#222"><path d="M68.937 20c.531 0 1.063-.516 1.063-1.033v-7.229c0-1.807-1.594-3.356-3.455-3.356h-5.581l-1.329-3.718c-.106-.516-.797-.775-1.329-.62l-30.56 9.036c-.531.103-.957.775-.638 1.291.106.413.531.775 1.063.775h.266l29.497-8.778 2.764 11.979c.106.516.797.775 1.329.62.531-.155.797-.775.638-1.291l-1.222-7.229h4.943c.797 0 1.329.62 1.329 1.291v7.229c.159.516.691 1.033 1.222 1.033zM76.747 31.507c-.533 0-1.067.531-1.067 1.061 0 .531.533 1.061 1.067 1.061.8 0 1.067.265 1.067 1.061v12.627c0 .796-.267 1.061-1.067 1.061h-16.8c-.8 0-1.067-.265-1.067-1.061v-10.505c0-.796.267-1.061 1.067-1.061h12.693c.533 0 1.067-.531 1.067-1.061v-12.627c0-1.857-1.227-3.183-3.2-3.183h-64.267c-2.56 0-4.267-1.592-4.267-4.244 0-2.547 1.6-4.244 4.267-4.244h10.667l-6.4 2.122c-.533.106-.8.796-.64 1.326.107.424.533.637 1.067.637h.267l38.133-12.468c.533-.106.8-.796.64-1.326-.16-.531-.8-.796-1.333-.637l-25.44 8.383h-16.907c-3.733 0-6.293 2.547-6.293 6.26v46.051c0 3.714 2.56 6.26 6.293 6.26h64.267c1.867 0 3.2-1.167 3.2-3.183v-10.505c0-.531-.533-1.061-1.067-1.061-.533 0-1.067.531-1.067 1.061v10.505c0 .796-.267 1.061-1.067 1.061h-64.267c-2.56 0-4.267-1.592-4.267-4.244v-41.064c1.067.955 2.56 1.486 4.267 1.486h64.267c.8 0 1.067.265 1.067 1.061v11.566h-11.627c-1.867 0-3.2 1.167-3.2 3.183v10.505c0 1.857 1.227 3.183 3.2 3.183h16.8c1.867 0 3.2-1.167 3.2-3.183v-12.627c-.053-1.91-1.227-3.236-3.253-3.236z" id="Shape"/><circle cx="68" cy="42" r="2"/><path d="M8.073 62h31.855c.59 0 1.073-.45 1.073-1s-.483-1-1.073-1h-31.855c-.59 0-1.073.45-1.073 1 .054.45.483 1 1.073 1z"/></g></svg>
